teeny/solid/float-left.svg

<svg width="15" height="15" viewBox="0 0 15 15" fill="none" xmlns="http://www.w3.org/2000/svg">
<path d="M1.5 0C0.671573 0 0 0.671573 0 1.5V5.5C0 6.32843 0.671573 7 1.5 7H5.5C6.32843 7 7 6.32843 7 5.5V1.5C7 0.671573 6.32843 0 5.5 0H1.5Z" fill="black"/>
<path d="M9 2H15V1H9V2Z" fill="black"/>
<path d="M9 6H15V5H9V6Z" fill="black"/>
<path d="M0 10H15V9H0V10Z" fill="black"/>
<path d="M0 14H15V13H0V14Z" fill="black"/>
</svg>

<svg viewBox="0 0 15 15" xmlns="http://www.w3.org/2000/svg"><g><path d="M1.5 0C.67 0 0 .67 0 1.5v4C0 6.32.67 7 1.5 7h4C6.32 7 7 6.32 7 5.5v-4C7 .67 6.32 0 5.5 0h-4Z"/><path d="M9 2h6V1H9v1Z"/><path d="M9 6h6V5H9v1Z"/><path d="M0 10h15V9H0v1Z"/><path d="M0 14h15v-1H0v1Z"/></g></svg>
